svg/u1f51b.svg

<svg viewBox="0 0 128 128" xmlns="http://www.w3.org/2000/svg">
  <g>
    <path d="M116,4H12c-4.42,0-8,3.58-8,8v104c0,4.42,3.58,8,8,8h104c4.42,0,8-3.58,8-8V12 C124,7.58,120.42,4,116,4z" fill="#427687"/>
    <path d="M109.7,4H11.5C7.37,4.03,4.03,7.37,4,11.5v97.9c-0.01,4.14,3.34,7.49,7.48,7.5c0.01,0,0.01,0,0.02,0 h98.1c4.14,0.01,7.49-3.34,7.5-7.48c0-0.01,0-0.01,0-0.02V11.5c0.09-4.05-3.13-7.41-7.18-7.5C109.85,4,109.77,4,109.7,4z" fill="#8CAFBF"/>
    <path d="M106.6,41l-24-24c-1.68-1.44-4.2-1.24-5.64,0.44C76.35,18.15,76.01,19.06,76,20v14c0,1.1-0.9,2-2,2 H54c-1.1,0-2-0.9-2-2V20c-0.02-2.21-1.83-3.98-4.04-3.96c-0.94,0.01-1.85,0.35-2.56,0.96l-24,24c-1.66,1.46-1.82,3.99-0.35,5.65 c0.11,0.13,0.23,0.24,0.35,0.35l24,24c1.68,1.44,4.2,1.24,5.64-0.44c0.61-0.71,0.95-1.62,0.96-2.56V54c0-1.1,0.9-2,2-2h20 c1.1,0,2,0.9,2,2v14c0.02,2.21,1.83,3.98,4.04,3.96c0.94-0.01,1.85-0.35,2.56-0.96l24-24c1.66-1.35,1.91-3.79,0.56-5.44 C106.99,41.35,106.8,41.17,106.6,41z" fill="#FAFAFA"/>
    <path d="M39.7,12.9c0-2.3-1.6-3-10.8-2.7c-7.7,0.3-11.5,1.2-13.8,4 s-2.9,8.5-3,15.3c0,4.8,0,9.3,2.5,9.3c3.4,0,3.4-7.9,6.2-12.3C26.2,17.8,39.7,15.9,39.7,12.9z" opacity="0.5" fill="#B4E1ED" enable-background="new "/>
  </g>
  <g>
    <path d="M56.52,97.71c0,4.61-1.14,8.15-3.43,10.63s-5.56,3.71-9.83,3.71s-7.54-1.24-9.83-3.71 s-3.43-6.03-3.43-10.66s1.15-8.17,3.44-10.62c2.29-2.44,5.58-3.67,9.85-3.67s7.55,1.23,9.82,3.69 C55.38,89.55,56.52,93.09,56.52,97.71z M36.2,97.71c0,3.11,0.59,5.45,1.77,7.03s2.95,2.36,5.29,2.36c4.71,0,7.06-3.13,7.06-9.39 c0-6.27-2.34-9.41-7.03-9.41c-2.35,0-4.12,0.79-5.31,2.37C36.79,92.26,36.2,94.6,36.2,97.71z" fill="#FAFAFA"/>
    <path d="M85.62,111.67h-7.5L66.01,90.61h-0.17c0.24,3.72,0.36,6.37,0.36,7.96v13.1h-5.27V83.83h7.45 l12.09,20.85h0.13c-0.19-3.62-0.29-6.18-0.29-7.67V83.83h5.31V111.67z" fill="#FAFAFA"/>
    <path d="M90.19,108.95c0-0.6,0.09-1.1,0.26-1.51c0.17-0.41,0.41-0.75,0.71-1c0.3-0.25,0.66-0.44,1.07-0.55 s0.84-0.17,1.31-0.17c0.44,0,0.87,0.06,1.27,0.17c0.4,0.11,0.75,0.3,1.06,0.55s0.54,0.59,0.72,1c0.18,0.41,0.27,0.92,0.27,1.51 c0,0.57-0.09,1.06-0.27,1.47s-0.42,0.74-0.72,1.01s-0.66,0.46-1.06,0.58c-0.4,0.12-0.82,0.18-1.27,0.18 c-0.47,0-0.91-0.06-1.31-0.18c-0.41-0.12-0.76-0.31-1.07-0.58c-0.3-0.27-0.54-0.6-0.71-1.01 C90.28,110.01,90.19,109.52,90.19,108.95z M95.88,102.44h-4.65l-0.97-18.61h6.59L95.88,102.44z" fill="#FAFAFA"/>
  </g>
</svg>

<svg viewBox="0 0 128 128" xmlns="http://www.w3.org/2000/svg">
  <defs/>
  <path d="M116,4 L12,4 C7.58,4 4,7.58 4,12 L4,116 C4,120.42 7.58,124 12,124 L116,124 C120.42,124 124,120.42 124,116 L124,12 C124,7.58 120.42,4 116,4 Z" fill="#427687"/>
  <path d="M109.7,4 L11.5,4 C7.37,4.03 4.03,7.37 4,11.5 L4,109.4 C3.99,113.54 7.34,116.89 11.48,116.9 C11.49,116.9 11.49,116.9 11.5,116.9 L109.6,116.9 C113.74,116.91 117.09,113.56 117.1,109.42 C117.1,109.41 117.1,109.41 117.1,109.4 L117.1,11.5 C117.19,7.45 113.97,4.09 109.92,4 C109.85,4 109.77,4 109.7,4 Z" fill="#8CAFBF"/>
  <path d="M106.6,41 L82.6,17 C80.92,15.56 78.4,15.76 76.96,17.44 C76.35,18.15 76.01,19.06 76,20 L76,34 C76,35.1 75.1,36 74,36 L54,36 C52.9,36 52,35.1 52,34 L52,20 C51.98,17.79 50.17,16.02 47.96,16.04 C47.02,16.05 46.11,16.39 45.4,17 L21.4,41 C19.74,42.46 19.58,44.99 21.05,46.65 C21.16,46.78 21.28,46.89 21.4,47 L45.4,71 C47.08,72.44 49.6,72.24 51.04,70.56 C51.65,69.85 51.99,68.94 52,68 L52,54 C52,52.9 52.9,52 54,52 L74,52 C75.1,52 76,52.9 76,54 L76,68 C76.02,70.21 77.83,71.98 80.04,71.96 C80.98,71.95 81.89,71.61 82.6,71 L106.6,47 C108.26,45.65 108.51,43.21 107.16,41.56 C106.99,41.35 106.8,41.17 106.6,41 Z" fill="#FAFAFA"/>
  <path d="M39.7,12.9 C39.7,10.6 38.1,9.9 28.9,10.2 C21.2,10.5 17.4,11.4 15.1,14.2 C12.8,17 12.2,22.7 12.1,29.5 C12.1,34.3 12.1,38.8 14.6,38.8 C18,38.8 18,30.9 20.8,26.5 C26.2,17.8 39.7,15.9 39.7,12.9 Z" fill="#B4E1ED" opacity="0.5"/>
  <path d="M56.52,97.71 C56.52,102.32 55.38,105.86 53.09,108.34 C50.8,110.82 47.53,112.05 43.26,112.05 C38.99,112.05 35.72,110.81 33.43,108.34 C31.14,105.87 30,102.31 30,97.68 C30,93.05 31.15,89.51 33.44,87.06 C35.73,84.62 39.02,83.39 43.29,83.39 C47.56,83.39 50.84,84.62 53.11,87.08 C55.38,89.55 56.52,93.09 56.52,97.71 Z M36.2,97.71 C36.2,100.82 36.79,103.16 37.97,104.74 C39.15,106.32 40.92,107.1 43.26,107.1 C47.97,107.1 50.32,103.97 50.32,97.71 C50.32,91.44 47.98,88.3 43.29,88.3 C40.94,88.3 39.17,89.09 37.98,90.67 C36.79,92.26 36.2,94.6 36.2,97.71 Z" fill="#FAFAFA"/>
  <path d="M85.62,111.67 L78.12,111.67 L66.01,90.61 L65.84,90.61 C66.08,94.33 66.2,96.98 66.2,98.57 L66.2,111.67 L60.93,111.67 L60.93,83.83 L68.38,83.83 L80.47,104.68 L80.6,104.68 C80.41,101.06 80.31,98.5 80.31,97.01 L80.31,83.83 L85.62,83.83 L85.62,111.67 Z" fill="#FAFAFA"/>
  <path d="M90.19,108.95 C90.19,108.35 90.28,107.85 90.45,107.44 C90.62,107.03 90.86,106.69 91.16,106.44 C91.46,106.19 91.82,106 92.23,105.89 C92.64,105.78 93.07,105.72 93.54,105.72 C93.98,105.72 94.41,105.78 94.81,105.89 C95.21,106 95.56,106.19 95.87,106.44 C96.18,106.69 96.41,107.03 96.59,107.44 C96.77,107.85 96.86,108.36 96.86,108.95 C96.86,109.52 96.77,110.01 96.59,110.42 C96.41,110.83 96.17,111.16 95.87,111.43 C95.57,111.7 95.21,111.89 94.81,112.01 C94.41,112.13 93.99,112.19 93.54,112.19 C93.07,112.19 92.63,112.13 92.23,112.01 C91.82,111.89 91.47,111.7 91.16,111.43 C90.86,111.16 90.62,110.83 90.45,110.42 C90.28,110.01 90.19,109.52 90.19,108.95 Z M95.88,102.44 L91.23,102.44 L90.26,83.83 L96.85,83.83 L95.88,102.44 Z" fill="#FAFAFA"/>
</svg>
